X:15
T:Alf's Place Reel
R:reel
C:Bruce Osborne - June 2002
Z:bosborne@kos.net
M:2/4
L:1/16
K:Bb
Bc|dBFB DFBc|dBFB D2AB|cFFF cFFF|eFdF c2Bc|
dBFB DFBc|dBFB D2AB|cFFF ecAc|BABc B2:|
|:DE|FB,B,A, B,DFA|BABc B2AB|cFFF cFFF|eFdF c2DE|
FB,B,A, B,DFA|BABc B2AB|cFFF ecAc|BABc B2:|
